svgs/regular/kip-sign.svg

<svg xmlns="http://www.w3.org/2000/svg" viewBox="0 0 384 512"><!--! Font Awesome Pro 6.2.0 by @fontawesome - https://fontawesome.com License - https://fontawesome.com/license (Commercial License) Copyright 2022 Fonticons, Inc. --><path d="M88 32C101.3 32 112 42.75 112 56V210.5L312.3 37.82C322.4 29.17 337.5 30.29 346.2 40.33C354.8 50.37 353.7 65.52 343.7 74.18L160.6 232H360C373.3 232 384 242.7 384 256C384 269.3 373.3 280 360 280H160.6L343.7 437.8C353.7 446.5 354.8 461.6 346.2 471.7C337.5 481.7 322.4 482.8 312.3 474.2L112 301.5V456.1C112 470.3 101.3 480.1 88 480.1C74.75 480.1 64 470.3 64 456.1V280H24C10.75 280 0 269.3 0 256C0 242.7 10.75 232 24 232H64V56C64 42.75 74.75 32 88 32V32z"/></svg>

<svg xmlns="http://www.w3.org/2000/svg" viewBox="0 0 384 512"><!--! Font Awesome Pro 6.3.0 by @fontawesome - https://fontawesome.com License - https://fontawesome.com/license (Commercial License) Copyright 2023 Fonticons, Inc. --><path d="M88 32c13.3 0 24 10.7 24 24V210.5L312.3 37.8c10-8.7 25.2-7.5 33.8 2.5s7.5 25.2-2.5 33.8L160.6 232H360c13.3 0 24 10.7 24 24s-10.7 24-24 24H160.6L343.7 437.8c10 8.7 11.2 23.8 2.5 33.8s-23.8 11.2-33.8 2.5L112 301.5V457c0 13.3-10.7 24-24 24s-24-10.7-24-24V280H24c-13.3 0-24-10.7-24-24s10.7-24 24-24H64V56c0-13.3 10.7-24 24-24z"/></svg>
